X:330
T: Thadelo's
S: "Johnny O'Leary of Sliabh Luachra" (#76)
Z: B.Black
L: 1/8
M: 12/8
Q: 350
R: slide
K: A
ccc cBA B2A F2A|BAB c2d e3 e2A|
BAB cBA B2A F3|1 A2B c2B A3 A3 :|2\
A2B c2B A3 Ace||
f2e cBA B2A F3|f2e c2d e3 ec/d/e|
f2e cBA B2A F2A|A2B c2B A3 A3 :|
